build/flags/Djibouti.svg

<svg xmlns="http://www.w3.org/2000/svg" fill="none" viewBox="0 0 28 28" focusable="false"><defs><filter id="Djibouti_svg__a"><feColorMatrix values="0 0 0 0 1 0 0 0 0 1 0 0 0 0 1 0 0 0 1 0"/></filter></defs><mask id="Djibouti_svg__b" width="28" height="20" x="0" y="4" maskUnits="userSpaceOnUse"><g filter="url(#Djibouti_svg__a)"><rect width="28" height="20" y="4" fill="#FFF" rx="3"/><rect width="28" height="20" y="4" stroke="#969696" stroke-opacity="0" stroke-width="0" rx="3"/></g></mask><path fill="none" d="M0 0H28V28H0z"/><rect width="28" height="20" y="4" fill="#FFF" rx="3"/><rect width="28" height="20" y="4" rx="3"/><g mask="url(#Djibouti_svg__b)"><path fill="#1DC837" fill-rule="evenodd" d="M0 24L28 24L28 13.3334L0 13.3334L0 24Z"/><path d="M28 24L28 13.3334L0 13.3334L0 24L28 24Z"/><path fill="#82C5F5" fill-rule="evenodd" d="M0 13.3333L28 13.3333L28 4L0 4L0 13.3333Z"/><path d="M28 13.3333L28 4L0 4L0 13.3333L28 13.3333Z"/><path fill="#FFF" fill-rule="evenodd" d="M0 4L13.3333 14L0 24L0 4Z"/><path d="M13.3333 14L0 24L0 4L13.3333 14Z"/><path fill="#E21C21" fill-rule="evenodd" d="M4.66665 15.3L2.70736 16.6967L3.43027 14.4017L1.49646 12.9699L3.90253 12.9482L4.66665 10.6666L5.43077 12.9482L7.83683 12.9699L5.90302 14.4017L6.62593 16.6967L4.66665 15.3Z"/><path d="M2.70736 16.6967L3.43027 14.4017L1.49646 12.9699L3.90253 12.9482L4.66665 10.6666L5.43077 12.9482L7.83683 12.9699L5.90302 14.4017L6.62593 16.6967L4.66665 15.3L2.70736 16.6967Z"/></g></svg>

<svg xmlns="http://www.w3.org/2000/svg" fill="none" viewBox="0 0 28 28" focusable="false"><path fill="none" d="M0 0h28v28H0z"/><rect width="28" height="20" y="4" fill="#FFF" rx="3"/><rect width="28" height="20" y="4" rx="3"/><mask id="Djibouti_svg__a" width="28" height="20" x="0" y="4" mask-type="alpha" maskUnits="userSpaceOnUse"><rect width="28" height="20" y="4" fill="#FFF" rx="3"/><rect width="28" height="20" y="4" stroke="#979797" stroke-opacity="0" stroke-width="0" rx="3"/></mask><g mask="url(#Djibouti_svg__a)"><path fill="#1DC837" fill-rule="evenodd" d="M0 24h28V13.33H0z"/><path d="M28 24V13.33H0V24z"/></g><g mask="url(#Djibouti_svg__a)"><path fill="#82C5F5" fill-rule="evenodd" d="M0 13.33h28V4H0z"/><path d="M28 13.33V4H0v9.33z"/></g><g mask="url(#Djibouti_svg__a)"><path fill="#FFF" fill-rule="evenodd" d="m0 4 13.33 10L0 24z"/><path d="M13.33 14 0 24V4z"/></g><g mask="url(#Djibouti_svg__a)"><path fill="#E21C21" fill-rule="evenodd" d="M4.66 15.3 2.7 16.69l.73-2.29-1.94-1.44 2.41-.02.76-2.28.77 2.28 2.4.02L5.9 14.4l.72 2.29z"/><path d="m2.7 16.69.73-2.29-1.94-1.44 2.41-.02.76-2.28.77 2.28 2.4.02L5.9 14.4l.72 2.29-1.96-1.39z"/></g></svg>
